!!!ONB: MCCC : IJH0454_03 : Extracted Monophonic Melody
!!!COM: Haydn, Joseph
!!!OPR: String Quartet in F major
!!!OMV: 3
!!!SCT: Hob.III:73 ; Op.74 No.2
!!!ODT: 1793///
**kern
*thru
*k[b-]
*F:
*clefF
*M3/4
4c
=1
4A
4c
4f
=2
32e
32f
8.g
32g
32a
8.b-
8g
8e
=3
4f
4a
4cc
=4
2cc#
4a
=5
4dd
4ff
4aa
=6
32b
32cc
8.dd
32dd
32ee
8.ff
8ff
8ee
=7
8ee
8dd
8dd
8cc
8cc
8b
=8
4cc
4r
4g
=9
2a-
4b
=10
4cc
4r
4ee
=11
2ff
4b
=12
4cc
4r
4a
=13
4b-
4r
4dd
=14
4cc#
4dd
4cc
=15
4b-
4a
4g
=16
4f
4e
4d
=17
4c
4B
4B-
=18
4A
4c
4f
=19
32e
32f
8.g
32g
32a
8.b-
8g
8e
=20
4f
4a
4cc
=21
2cc#
4dd
=22
4g
4dd
4gg
=23
2.ff
=24
2ee
4cc
=25
4ff
4aa
4ccc
=26
32ee
32ff
8.gg
32gg
32aa
8.bb-
8bb-
8aa
=27
8aa
8gg
8gg
8ff
8ff
8ee
=28
2.r
=29
8aa
8gg
8gg
8ff
8ff
8ee
=30
2.r
=31
8aa
8gg
8gg
8ff
8ff
8ee
=32
8ee
8dd
8dd
8cc
8cc
8b
=33
4cc
4dd
4ee
=34
4ff
4gg
4aa
=35
2bb-
4aa
=36
8aa
8gg
8gg
8ff
8ff
8ee
=37
4ff
4r
4c
=38
4A
4c
4f
=39
4B-
4d
4g
=40
4G
4B-
4e
=41
4f
4r
*D-:
4r
=42
2.r
=43
2.r
=44
2.r
=45
8r
8aa-
8gg-
8ff
8ee-
8dd-
=46
8cc
8b-
8cc
8dd-
8ee-
8ff
=47
8gg-
8aa-
8bb-
8ccc
8ddd-
8eee-
=48
4fff
4ddd-
4aa-
=49
4ff
4dd-
4a-
=50
2.g
=51
2.a-
=52
4b-
4dd-
4g
=53
4a-
2r
=54
8r
8cc
8dd-
8ee-
8ff
8gg-
=55
8gg
8aa-
8bb-
8aa-
8gg-
8ff
=56
8gg
8aa-
8bb-
8ccc
8ddd-
8gg
=57
8bb-
8aa-
8gg
8aa-
8gg
8aa-
=58
8bb-
8aa-
8gg
8aa-
8gg
8aa-
=59
8bb-
8aa-
8gg-
8ff
8ee-
8dd-
=60
8cc
8b-
8cc
8dd-
8ee-
8ff
=61
8gg-
8aa-
8bb-
8ccc
8ddd-
8eee-
=62
4fff
4ddd-
4aa-
=63
4ff
4dd-
4a-
=64
2.g
=65
2g-
4f
=66
4e-
4d-
4c
=67
2d-
4r
=68
8r
8cc
8dd-
8ee-
8ff
8gg-
=69
8gg
8aa-
8bb-
8aa-
8gg-
8ff
=70
8dd
8ee-
8aa-
8gg-
8ff
8ee-
=71
8cc
8dd-
8gg-
8ff
8ee-
8dd-
=72
8ee
8ff
8bb-
8aa-
8gg
8ff
=73
4ee
4gg
4cc
=74
2.b
=75
4cc
4r
4b
=76
4cc
4r
4b
=77
4cc
4r
4b
=78
4cc
4r
4r
==
*-
